Avidclan_Website/assets/images/icons/component-based-ic.svg

<?xml version="1.0" encoding="utf-8"?>
<!-- Generator: Adobe Illustrator 24.1.1, SVG Export Plug-In . SVG Version: 6.00 Build 0)  -->
<svg version="1.1" id="Layer_1" xmlns="http://www.w3.org/2000/svg" xmlns:xlink="http://www.w3.org/1999/xlink" x="0px" y="0px"
	 viewBox="0 0 426.2 426.2" style="enable-background:new 0 0 426.2 426.2;" xml:space="preserve">
<style type="text/css">
	.st0{fill:#007AFB;}
</style>
<path class="st0" d="M0,0v189.4l189.4,0V0L0,0z M236.8,0v189.4h189.4V0L236.8,0z M22.3,22.3h144.8v144.9H22.3L22.3,22.3z
	 M259.1,22.3H404v144.9H259.1V22.3z M0,236.8v189.5h189.4V236.8H0z M331.5,236.8c-52.2,0-94.7,42.5-94.7,94.7s42.5,94.7,94.7,94.7
	s94.7-42.6,94.7-94.7S383.7,236.8,331.5,236.8L331.5,236.8z M22.3,259.1h144.8v144.8H22.3V259.1z M331.5,259.1
	c40.1,0,72.4,32.3,72.4,72.4s-32.3,72.4-72.4,72.4c-40.1,0-72.4-32.3-72.4-72.4S291.4,259.1,331.5,259.1L331.5,259.1z"/>
</svg>

<svg width="427" height="427" viewBox="0 0 427 427" fill="none" xmlns="http://www.w3.org/2000/svg">
<g clip-path="url(#clip0_493_338)">
<path d="M0 0V189.4H189.4V0H0ZM236.8 0V189.4H426.2V0H236.8ZM22.3 22.3H167.1V167.2H22.3V22.3ZM259.1 22.3H404V167.2H259.1V22.3ZM0 236.8V426.3H189.4V236.8H0ZM331.5 236.8C279.3 236.8 236.8 279.3 236.8 331.5C236.8 383.7 279.3 426.2 331.5 426.2C383.7 426.2 426.2 383.6 426.2 331.5C426.2 279.4 383.7 236.8 331.5 236.8ZM22.3 259.1H167.1V403.9H22.3V259.1ZM331.5 259.1C371.6 259.1 403.9 291.4 403.9 331.5C403.9 371.6 371.6 403.9 331.5 403.9C291.4 403.9 259.1 371.6 259.1 331.5C259.1 291.4 291.4 259.1 331.5 259.1Z" fill="#0E53BE"/>
</g>
<defs>
<clipPath id="clip0_493_338">
<rect width="426.2" height="426.2" fill="white"/>
</clipPath>
</defs>
</svg>
